gama.ui.shared/icons_svg/dark/views/view.other.svg

<svg height="25" viewBox="-275.21 -3025.285 25 25" width="25" xmlns="http://www.w3.org/2000/svg"><g fill="none"><path d="m-270.86992-3024.7847h16.32c2.12077 0 3.84 1.7192 3.84 3.84v16.32c0 2.1207-1.71923 3.84-3.84 3.84h-16.32c-2.12078 0-3.84-1.7193-3.84-3.84v-16.32c0-2.1208 1.71922-3.84 3.84-3.84z" fill="#666"/><path d="m-270.86992-3024.7847h16.32c2.12077 0 3.84 1.7192 3.84 3.84v16.32c0 2.1207-1.71923 3.84-3.84 3.84h-16.32c-2.12078 0-3.84-1.7193-3.84-3.84v-16.32c0-2.1208 1.71922-3.84 3.84-3.84z" stroke="#fff" stroke-linecap="round" stroke-linejoin="round" stroke-width=".25"/><path d="m-254.70992-3007.0057c0 1.226-.995 2.221-2.22098 2.221h-11.55803c-1.22597 0-2.22099-.995-2.22099-2.221v-11.5581c0-1.2259.99502-2.2209 2.22099-2.2209h11.55803c1.22598 0 2.22098.995 2.22098 2.2209zm-.88838-10.2253v-1.3328c0-.7372-.59524-1.3325-1.3326-1.3325h-11.55803c-.73737 0-1.33259.5953-1.33259 1.3325v1.3328zm0 .8882h-14.22322v9.3371c0 .7373.59522 1.3327 1.33259 1.3327h11.55803c.73736 0 1.3326-.5954 1.3326-1.3327zm-13.33483-2.6652h.8884v.8884h-.8884zm1.77679 0h.8884v.8884h-.8884zm1.77679 0h.8884v.8884h-.8884z" fill="#e3e6e1"/></g></svg>

<?xml version="1.0" encoding="UTF-8" standalone="no"?>
<!DOCTYPE svg PUBLIC "-//W3C//DTD SVG 1.1//EN" "http://www.w3.org/Graphics/SVG/1.1/DTD/svg11.dtd">
<svg xmlns="http://www.w3.org/2000/svg" xmlns:xl="http://www.w3.org/1999/xlink" version="1.1" xmlns:dc="http://purl.org/dc/elements/1.1/" viewBox="-275.20992 -3025.2847 25 25" width="25" height="25">
  <defs/>
  <g id="SOURCES" stroke-opacity="1" fill="none" stroke="none" fill-opacity="1" stroke-dasharray="none">
    <title>SOURCES</title>
    <g id="SOURCES_Dark">
      <title>Dark</title>
      <g id="Graphic_11103">
        <title>views/view.other</title>
        <path d="M -270.86992 -3024.7847 L -254.54992 -3024.7847 C -252.42915 -3024.7847 -250.70992 -3023.0655 -250.70992 -3020.9447 L -250.70992 -3004.6247 C -250.70992 -3002.504 -252.42915 -3000.7847 -254.54992 -3000.7847 L -270.86992 -3000.7847 C -272.9907 -3000.7847 -274.70992 -3002.504 -274.70992 -3004.6247 L -274.70992 -3020.9447 C -274.70992 -3023.0655 -272.9907 -3024.7847 -270.86992 -3024.7847 Z" fill="#666"/>
        <path d="M -270.86992 -3024.7847 L -254.54992 -3024.7847 C -252.42915 -3024.7847 -250.70992 -3023.0655 -250.70992 -3020.9447 L -250.70992 -3004.6247 C -250.70992 -3002.504 -252.42915 -3000.7847 -254.54992 -3000.7847 L -270.86992 -3000.7847 C -272.9907 -3000.7847 -274.70992 -3002.504 -274.70992 -3004.6247 L -274.70992 -3020.9447 C -274.70992 -3023.0655 -272.9907 -3024.7847 -270.86992 -3024.7847 Z" stroke="white" stroke-linecap="round" stroke-linejoin="round" stroke-width=".25"/>
      </g>
      <g id="Graphic_11102">
        <path d="M -254.70992 -3007.0057 C -254.70992 -3005.7797 -255.70492 -3004.7847 -256.9309 -3004.7847 L -268.48893 -3004.7847 C -269.7149 -3004.7847 -270.70992 -3005.7797 -270.70992 -3007.0057 L -270.70992 -3018.5638 C -270.70992 -3019.7897 -269.7149 -3020.7847 -268.48893 -3020.7847 L -256.9309 -3020.7847 C -255.70492 -3020.7847 -254.70992 -3019.7897 -254.70992 -3018.5638 L -254.70992 -3007.0057 Z M -255.5983 -3017.231 L -255.5983 -3018.5638 C -255.5983 -3019.301 -256.19354 -3019.8963 -256.9309 -3019.8963 L -268.48893 -3019.8963 C -269.2263 -3019.8963 -269.82152 -3019.301 -269.82152 -3018.5638 L -269.82152 -3017.231 Z M -255.5983 -3016.3428 L -269.82152 -3016.3428 L -269.82152 -3007.0057 C -269.82152 -3006.2684 -269.2263 -3005.673 -268.48893 -3005.673 L -256.9309 -3005.673 C -256.19354 -3005.673 -255.5983 -3006.2684 -255.5983 -3007.0057 Z M -268.93313 -3019.008 L -268.04473 -3019.008 L -268.04473 -3018.1196 L -268.93313 -3018.1196 Z M -267.15634 -3019.008 L -266.26794 -3019.008 L -266.26794 -3018.1196 L -267.15634 -3018.1196 Z M -265.37955 -3019.008 L -264.49115 -3019.008 L -264.49115 -3018.1196 L -265.37955 -3018.1196 Z" fill="#e3e6e1"/>
      </g>
    </g>
  </g>
</svg>
